!!!COM: Sindici, Oreste
!!!CDT: 1837-1904
!!!OTL: National Anthem, Colombia
!!!ENC: Davis, Matthew J.
!!Vocal Line Only
**kern
*clefG2
*k[b-e-a-]
*E-:
*M4/4
=1-
1r
=2
1r
=3
1r
=4
1r
=5
1r
=6
1r
=7
1r
=8
2r
4r
!Chorus
8.g
16a-
=9
4b-
4b-
4cc
8.b-
16an
=10
2b-
4g
8.e-
16f
=11
4g
4b-
4a-
4f
=12
4e-
4r
4r
8.g
16a-
=13
4b-
4b-
4cc
8.b-
16an
=14
2b-
4g
4b-
=15
4b-
8.an
16b-
4cc
8.b-
16cc
=16
2.dd
8.dd
16cc
=17
4cc
8.b-
16a-
4a-
8.g
16f
=18
4e-
4r
2r
=19
4ee-
4.ee-
8ee-
8dd
8cc
=20
2dd
4g
4r
=21
4cc
4.cc
8cc
8b-
8a-
=22
2b-
4r
8.g
16f
=23
4e-
8.b-
16a-
8.ee-
16dd
=24
4dd
2cc
8.dd
16ee-
=25
4g
8.cc
16b-
4f
8.a-
16g
=26
4e-
4r
2r
!FINE
==27
!Verse
4e-
8.e-
16e-
8.a-
16cc
8.b-
16dd-
=28
2cc
4a-
4r
=29
4cc
9.cc
16cc
8.cc
16ee-
8.dd-
16cc
=30
4..cc
16b-
4f
4r
=31
4f
8.f
16f
8.b-
16dd-
8.cc
16ee-
=32
2dd-
4b-
4r
=33
4b-
8.cc
16dd-
4.ff
8ee-
=34
4a-
4r
4r
4a-
=35
4.a-
8a-
4b-
4cc
=36
2b-
8g
8r
4b-
=37
4.b-
8b-
4cc
4dd-
=38
2cc
8a-
8r
4cc
=39
2dd
8b-
8r
8.b-
16b-
=40
2ee-
8b-
8r
4b-
=41
4.gg
8ee-
4.ff
8dd
=42
4ee-
4r
2r
!D.C. al Fine (m. 26)
==|!
*-
